X:66
T: Princess Royal
R: barndance
C: as arranged  by J. Spiers & J. Boden ("Bellow")
C: original by T. O'Carolan
C: transcribed by J. Lee Othon
M: C
L: 1/8
K: G
Q: 180
   dc | B2A2 G2dc | B2A2 G2dd | e2 cc cdec  | d2 BB BcdB  |
        c2B2 A2G2 | FGAF D2dc | BAGB AGGF   | G6         :|
|: Bd | e2ed e2ed | e2f2 g4   | g2f2 e2d2   | BAGB A4     |
        G2GG ABcA | BAGd g3g  | g2d2 e3e    | e2B2 c3c    |
        c2B2 A2G2 | FGAF D2dc | BAGB AGGF   | G6         :|
% Todo: upload to The Session

